X:1
T:Title
L:1/8
M:6/8
K:Bb
V:1 treble nm="Grand Piano"
V:1
 z3 z2[Q:1/4=81] F | F>GF B2 F/F/ | G>AB F2 F/F/ | BBB B>AB | c3- c2 F/F/ | d2 d/c/ B2 F/F/ | %6
 G>AB F2 F/F/ | d2 c B2 F/F/ | G>AB F2 F | F2 F c2 A | B3- B2 A/B/ | c2 c/c/ c2 c/c/ | c>Bc d2 d | %13
 dcB B>AB |[M:15/16] c->cdc3/2- c3 |[M:3/4] dd d d2 c | cB G F2 F | F>G F B2 B/B/ | c>B c B3 | %19
[M:1/8] F/F/ |[M:3/4] F>G A c2 F/F/ | B4- BF/F/ |[M:7/8] c>de d3 B/c/ |[M:3/4] d4- dF/F/ | %24
[M:15/16] f3/2dB/-B/c-c->cd |[M:5/8] B-B- B3 |] %26

